X: 34276
T: Reminiscing
R: barndance
M: 4/4
K: Eminor
B2 AG A2 F2|GFGA B2 E2|B2 AG A2 F2|GAFG E4|
B2 AG A2 F2|GFGA B2 E2|B2 AG A2 F2|GAFG E4||
c2 BA B2 AG|E2 AG FE D2|D2 EF G2 E2|E2 AG FE D2|
c2 BA B2 AG|E2 AG FE D2|D2 EF G2 E2|E2 AG FE D2||
E4 F2 EF|G4 G2 EF|G2 B2 A2 dc|B4 B2 AG|
e2 dc d2 B2|A2 dc BAGF|E2 FG ABGA|F2 GF E4|
E4 F2 EF|G4 G2 EF|G2 B2 A2 dc|B4 BAGF|
E2 BA B2 G2|FDdc BAGF|E2 FG ABGA|B2 ED^ E4||
B2 AG A2 F2|GFGA B2 E2|B2 AG A2 F2|GAFG E4|
B2 AG A2 F2|GFGA B2 E2|B2 AG A2 F2|GAFG E4||
c2 BA B2 AG|E4 FEDB|D2 EF G2 E2|E2 AG FE D2|
c2 dc B2 AG|E2 AG FEDB|B2 EF G2 E2|E2 AG FE D2||
E4 F2 EF|G4 G2 EF|G2 B2 A2 dc|B2 B/c/d/e/ d4|
e2 dc d2 B2|A2 dc BAGF|E2 FG ABGA|F2 GF E4||
B2 AG AGFD|B4 B2 EF|G2 B2 A2 dc|B4 B2 cd|
e2 dc d2 B2|A2 dc BAGF|E2 FG ABGA|F2 GF E4||

